X:1
T:Title
%%score 1 2 3
L:1/8
M:3/2
K:C
V:1 treble nm="Part_1"
V:2 treble-8 nm="Part_2"
V:3 treble-8 nm="Part_3"
V:1
 G6 E2 F2 G2 | A2 _B2 A2 F2 G4 | A8 z4 | A2 _B2 c6 B2 | A2 _B4 A2 G2 F2 | A4 z4 A4 | c6 B2 d2 c2 | %7
 A2 c4 _B2 A2 G2 | FG _B2 A2 GA G3 F | A8 c4 | c4 d4 _B4 | c4 _B6 A2 | A6 G2 G2 F2 | A8 z4 | %14
 A8 G4 | _B4 A6 G2 | A4 F4 A2 B2 | c2 d4 c2 B2 A2 | c4 z4 A2 _B2 | c6 _B2 A4 | A6 G2 _B2 A2 | %21
 F4 G4 D4 | F4 G6 E2 | F4 _E6 D2 | D4 C4 D2 _B,2 | C12 | D12 || F4 G2 A2 G2 F2 | A4 z4 A4 | %29
 A2 _B2 c6 B2 | A4 G6 E2 | F4 G2 A2 G2 E2 | F4 G6 F2 | A12 |] %34
V:2
 G8 A2 B2 | c2 d4 c2 B4 | A8 D4 | F2 G2 A6 G2 | F2 G2 D2 F2 E4 | D8 d4 | e8 d4 | c4 A2 G2 c4 | %8
 d4 c2 A2 _B4 | A8 F4 | A4 _B4 d4 | _e4 d6 c2 | c6 A2 _B4 | A8 z4 | F8 G4 | G4 D4 z4 | d12 | %17
 e2 f2 e2 c2 d4 | c4 A4 F4- | F4 A8 | c8 G4 | A4 E4 G4 | A4 _B6 A2 | A4 G6 F2 | F4 _E6 D2 | _E12 | %26
 D12 || F4 _B6 A2 | A8 A4 | c2 d2 e6 d2 | c4 B6 A2 | A4 G2 c2 B2 G2 | A4 B6 A2 | A12 |] %34
V:3
 d8 c2 d2 | A2 G2 D2 z2 E4 | F4 D4 d4 | c4 F6 G2 | A2 d4 d2 c2 B2 | d4 A4 D4 | A8 D4 | F6 G2 E4 | %8
 D4 F4 G4 | D8 A4 | c4 G8 | z4 G8 | A8 E4 | F4 D4 d4 | c8 B2 _Bc | d4 d6 d2 | D12 | z4 z4 G4 | %18
 C4 F6 G2 | A4 z4 F4- | F4 C8 | z4 G2 A2 _B4 | c4 G6 A2 | D4 z4 _B4 | A4 G6 F2 | G12 | A12 || %27
 c4 d2 e2 d2 c2 | e4 z4 e4 | e2 f2 g6 f2 | e4 d6 B2 | c4 d2 e2 d2 B2 | c4 d6 c2 | e12 |] %34

